bestshop/images/icons/icon-res-guide-video-04.svg

<svg xmlns="http://www.w3.org/2000/svg" width="80" height="80" viewBox="0 0 80 80">
  <g id="그룹_1260" data-name="그룹 1260" transform="translate(-442 -384)">
    <rect id="사각형_828" data-name="사각형 828" width="80" height="80" transform="translate(442 384)" fill="none"/>
    <g id="그룹_437" data-name="그룹 437" transform="translate(-14.09 44)">
      <g id="패스_213" data-name="패스 213" transform="translate(503 351)" fill="#fff">
        <path d="M 1.884396314620972 19.36956405639648 C 1.905412316322327 18.78807258605957 2.214903116226196 17.54386901855469 2.358779907226562 16.96544647216797 C 2.453690052032471 16.58390617370605 2.535650014877319 16.25439643859863 2.588350057601929 15.99152565002441 L 2.655499935150146 15.65656566619873 L 2.446860074996948 15.3860559463501 C 1.384340047836304 14.00846576690674 0.75 11.99498558044434 0.75 9.999996185302734 C 0.75 4.89952564239502 4.899529933929443 0.7499958276748657 10 0.7499958276748657 C 15.1004695892334 0.7499958276748657 19.25 4.89952564239502 19.25 9.999996185302734 C 19.25 15.10046577453613 15.1004695892334 19.24999618530273 10 19.24999618530273 C 8.513330459594727 19.24999618530273 7.169419765472412 18.90687561035156 5.642459869384766 18.1374454498291 L 5.36713981628418 17.99871635437012 L 5.073850154876709 18.09371566772461 C 4.821169853210449 18.17555618286133 4.487870216369629 18.33246612548828 4.065879821777344 18.53112602233887 C 3.447057962417603 18.82244682312012 2.44571852684021 19.29385566711426 1.884396314620972 19.36956405639648 Z" stroke="none"/>
        <path d="M 10 1.499996185302734 C 5.313079833984375 1.499996185302734 1.5 5.313076019287109 1.5 9.999996185302734 C 1.5 12.16057586669922 2.295900344848633 13.96229553222656 3.040729522705078 14.92800521850586 L 3.458019256591797 15.46902656555176 L 3.323720932006836 16.13893508911133 C 3.267629623413086 16.41871643066406 3.183740615844727 16.7559757232666 3.086599349975586 17.1464958190918 C 3.020059585571289 17.41400718688965 2.912408828735352 17.84678840637207 2.819080352783203 18.27386093139648 C 3.174524307250977 18.12178802490234 3.526935577392578 17.95588684082031 3.746450424194336 17.85254669189453 C 4.192480087280273 17.64257621765137 4.544790267944336 17.47671508789062 4.842740058898926 17.38020515441895 L 5.429320335388184 17.19020652770996 L 5.979949951171875 17.46766662597656 C 7.39680004119873 18.18161582946777 8.636630058288574 18.49999618530273 10 18.49999618530273 C 14.68692016601562 18.49999618530273 18.5 14.68691635131836 18.5 9.999996185302734 C 18.5 5.313076019287109 14.68692016601562 1.499996185302734 10 1.499996185302734 M 10 -3.814697265625e-06 C 15.52285003662109 -3.814697265625e-06 20 4.477155685424805 20 9.999996185302734 C 20 15.52284622192383 15.52285003662109 19.99999618530273 10 19.99999618530273 C 8.439740180969238 19.99999618530273 6.962940216064453 19.64266586303711 5.304960250854492 18.80721664428711 C 4.517580032348633 19.062255859375 1.98725700378418 20.57675552368164 1.291990280151367 19.99999618530273 C 0.7964801788330078 19.59187507629395 1.636720657348633 16.92288589477539 1.85297966003418 15.84410572052002 C 0.7975406646728516 14.4756965637207 0 12.33098602294922 0 9.999996185302734 C 0 4.477155685424805 4.477149963378906 -3.814697265625e-06 10 -3.814697265625e-06 Z" stroke="none" fill="#000"/>
      </g>
      <path id="패스_212" data-name="패스 212" d="M505.456,355.341l3.6,4.086,5.487-5.631" transform="translate(3.001 4.975)" fill="none" stroke="#000" stroke-linecap="round" stroke-linejoin="round" stroke-width="1.5"/>
      <g id="그룹_438" data-name="그룹 438" transform="translate(379.404 367.614)">
        <path id="패스_214" data-name="패스 214" d="M125.324,10.38a1.9,1.9,0,0,0-1.614-.386l-.372.083A4.285,4.285,0,0,0,120.174,13l-.608,1.974a1.9,1.9,0,0,1-.888,1.1l-.413.23a4.609,4.609,0,0,1-3.06.46,4.04,4.04,0,0,1-1.622-.71l-.885-.625a2.217,2.217,0,0,1-.749-1.106,5.81,5.81,0,0,1,1.53-5.452l1.216-1.224A1.9,1.9,0,0,1,116.26,7.1a4.7,4.7,0,0,1,3.1,1.708,3.018,3.018,0,0,0,2.067,1.106l.559.052a1.891,1.891,0,0,0,1.743-.822l.1-.151a1.892,1.892,0,0,0,.224-1.679l-1.208-3.52a1.894,1.894,0,0,0-1.161-1.172L114.108-.056a1.888,1.888,0,0,0-1.681.21c-1.012.675-2.8,1.871-4.182,2.8v-13.22A2.748,2.748,0,0,0,105.5-13.01h-.358a2.748,2.748,0,0,0-2.748,2.748v4.671a2.747,2.747,0,0,0-2.747-2.748h-.358a2.748,2.748,0,0,0-2.748,2.748V1.081a2.747,2.747,0,0,0-2.747-2.747h-.358a2.747,2.747,0,0,0-2.748,2.747V19.519a1.893,1.893,0,0,0,.253.945l5.348,9.294a9.5,9.5,0,0,1,.3,2.174c0,1.046.8.665,1.849.665h14.4c.869,0,1.673.637,1.883-.206l.056-.224a8.364,8.364,0,0,1,.494-2.149l8.552-8.049a1.893,1.893,0,0,0,.526-.87l1.167-4.18.877-3.173A3.238,3.238,0,0,0,125.324,10.38Z" fill="#fff" stroke="#040000" stroke-miterlimit="10" stroke-width="1.5"/>
        <line id="선_34" data-name="선 34" y2="9.868" transform="translate(96.538 1.081)" fill="#fff" stroke="#040000" stroke-linecap="round" stroke-miterlimit="10" stroke-width="1.5"/>
        <line id="선_35" data-name="선 35" y2="13.462" transform="translate(102.391 -5.591)" fill="#fff" stroke="#040000" stroke-linecap="round" stroke-miterlimit="10" stroke-width="1.5"/>
        <line id="선_36" data-name="선 36" x1="1.625" y2="1.066" transform="translate(106.62 2.958)" fill="#fff" stroke="#040000" stroke-linecap="round" stroke-miterlimit="10" stroke-width="1.5"/>
        <rect id="사각형_361" data-name="사각형 361" width="25.129" height="9.423" rx="1.186" transform="translate(93.525 32.567)" fill="#fff" stroke="#040000" stroke-miterlimit="10" stroke-width="1.5"/>
        <g id="타원_101" data-name="타원 101" transform="translate(111.641 35.188)" fill="#fff" stroke="#000" stroke-width="1">
          <circle cx="2" cy="2" r="2" stroke="none"/>
          <circle cx="2" cy="2" r="1.5" fill="none"/>
        </g>
      </g>
    </g>
  </g>
</svg>

<svg data-name="그룹 1260" xmlns="http://www.w3.org/2000/svg" width="80" height="80" viewBox="0 0 80 80">
    <path data-name="사각형 828" style="fill:none" d="M0 0h80v80H0z"/>
    <g data-name="그룹 437">
        <g data-name="패스 213" style="fill:#fff">
            <path d="M1.884 19.37c.021-.582.33-1.826.475-2.405.095-.381.177-.71.23-.973l.066-.335-.208-.27C1.384 14.007.75 11.994.75 10 .75 4.9 4.9.75 10 .75S19.25 4.9 19.25 10 15.1 19.25 10 19.25c-1.487 0-2.83-.343-4.358-1.113L5.367 18l-.293.095c-.253.082-.586.238-1.008.437-.619.291-1.62.763-2.182.839z" style="stroke:none" transform="translate(46.91 11)"/>
            <path d="M10 1.5c-4.687 0-8.5 3.813-8.5 8.5 0 2.16.796 3.962 1.54 4.928l.418.541-.134.67c-.056.28-.14.617-.237 1.007-.067.268-.175.7-.268 1.128.356-.152.708-.318.927-.421.446-.21.799-.376 1.097-.473l.586-.19.55.278C7.398 18.182 8.638 18.5 10 18.5c4.687 0 8.5-3.813 8.5-8.5 0-4.687-3.813-8.5-8.5-8.5M10 0c5.523 0 10 4.477 10 10s-4.477 10-10 10c-1.56 0-3.037-.357-4.695-1.193-.787.255-3.318 1.77-4.013 1.193-.496-.408.345-3.077.561-4.156C.798 14.476 0 12.331 0 10 0 4.477 4.477 0 10 0z" style="fill:#000;stroke:none" transform="translate(46.91 11)"/>
        </g>
        <path data-name="패스 212" d="m505.456 355.341 3.6 4.086 5.487-5.631" transform="translate(-453.089 -335.025)" style="stroke-width:1.5px;stroke-linecap:round;stroke:#da0f47;stroke-linejoin:round;fill:none"/>
        <g data-name="그룹 438" transform="translate(-76.686 27.614)">
            <path data-name="패스 214" d="M125.324 10.38a1.9 1.9 0 0 0-1.614-.386l-.372.083A4.285 4.285 0 0 0 120.174 13l-.608 1.974a1.9 1.9 0 0 1-.888 1.1l-.413.23a4.609 4.609 0 0 1-3.06.46 4.04 4.04 0 0 1-1.622-.71l-.885-.625a2.217 2.217 0 0 1-.749-1.106 5.81 5.81 0 0 1 1.53-5.452l1.216-1.224a1.9 1.9 0 0 1 1.565-.547 4.7 4.7 0 0 1 3.1 1.708 3.018 3.018 0 0 0 2.067 1.106l.559.052a1.891 1.891 0 0 0 1.743-.822l.1-.151a1.892 1.892 0 0 0 .224-1.679l-1.208-3.52a1.894 1.894 0 0 0-1.161-1.172l-7.576-2.678a1.888 1.888 0 0 0-1.681.21c-1.012.675-2.8 1.871-4.182 2.8v-13.22a2.748 2.748 0 0 0-2.745-2.744h-.358a2.748 2.748 0 0 0-2.748 2.748v4.671a2.747 2.747 0 0 0-2.747-2.748h-.358a2.748 2.748 0 0 0-2.748 2.748v6.672a2.747 2.747 0 0 0-2.747-2.747h-.358a2.747 2.747 0 0 0-2.748 2.747v18.438a1.893 1.893 0 0 0 .253.945l5.348 9.294a9.5 9.5 0 0 1 .3 2.174c0 1.046.8.665 1.849.665h14.4c.869 0 1.673.637 1.883-.206l.056-.224a8.364 8.364 0 0 1 .494-2.149l8.552-8.049a1.893 1.893 0 0 0 .526-.87l1.167-4.18.877-3.173a3.238 3.238 0 0 0-1.069-3.366z" style="stroke:#040000;stroke-miterlimit:10;fill:#edcec9;stroke-width:1.5px"/>
            <path data-name="선 34" transform="translate(96.538 1.081)" style="stroke:#040000;stroke-miterlimit:10;stroke-width:1.5px;stroke-linecap:round;fill:#fff" d="M0 0v9.868"/>
            <path data-name="선 35" transform="translate(102.391 -5.591)" style="stroke:#040000;stroke-miterlimit:10;stroke-width:1.5px;stroke-linecap:round;fill:#fff" d="M0 0v13.462"/>
            <path data-name="선 36" transform="translate(106.62 2.958)" style="stroke:#040000;stroke-miterlimit:10;stroke-width:1.5px;stroke-linecap:round;fill:#fff" d="M1.625 0 0 1.066"/>
            <rect data-name="사각형 361" width="25.129" height="9.423" rx="1.186" transform="translate(93.525 32.567)" style="fill:#ddd;stroke:#040000;stroke-miterlimit:10;stroke-width:1.5px"/>
            <g data-name="타원 101" transform="translate(111.641 35.188)" style="fill:#5b7d83;stroke:#000">
                <circle cx="2" cy="2" r="2" style="stroke:none"/>
                <circle cx="2" cy="2" r="1.5" style="fill:none"/>
            </g>
        </g>
    </g>
</svg>
